files/facesketch/hair/hair3.svg

<svg width="180" height="200" xmlns="http://www.w3.org/2000/svg"><path d="M125.5 40v-8m6 11.5V36m6 10.5V39m-89 3.5V35m-6 11.5V39m47.253-6v-8m5.747 9v-8m-41 14v-8m30 2v-8" stroke="#18181A" fill="none" fill-rule="evenodd" stroke-linecap="round" stroke-linejoin="round"/></svg>

<svg width="180" height="200" xmlns="http://www.w3.org/2000/svg"><g stroke="#18181A" fill="none" fill-rule="evenodd" stroke-linecap="round" stroke-linejoin="round"><path d="M125.5 40v-8M131.5 43.5V36M137.5 46.5V39M48.5 42.5V35M42.5 46.5V39M89.753 33v-8M95.5 34v-8M54.5 40v-8M84.5 34v-8"/></g></svg>
